assets/svgs/illustration-find-space.svg

<svg width="200" height="160" viewBox="0 0 200 160" fill="none" xmlns="http://www.w3.org/2000/svg" class="svg__illustration-find-space">
<path d="M157.995 81.626H118.561H44.0215C43.1604 81.626 42.396 82.1771 42.1239 82.994L19.1032 152.111C18.6719 153.406 19.6358 154.743 21.0007 154.743H179.174C180.519 154.743 181.48 153.443 181.086 152.158L159.907 83.04C159.65 82.1997 158.874 81.626 157.995 81.626Z" stroke="#0B6AB7" stroke-width="1.5" class="svg__stroke--primary-blue-03"/>
<path d="M101.209 87.2881L137.708 95.8507L152.826 116.523L137.708 137.195L101.209 145.758L64.7109 137.195L49.5928 116.523L64.7109 95.8507L101.209 87.2881Z" stroke="#0B6AB7" stroke-width="1.5" class="svg__stroke--primary-blue-03"/>
<path d="M101.21 90.6079L133.565 98.1985L146.966 116.524L133.565 134.849L101.21 142.439L68.8549 134.849L55.4531 116.524L68.8549 98.1985L101.21 90.6079Z" stroke="#00E0E0" stroke-width="1.5" class="svg__stroke--help-green-03"/>
<path d="M136.429 39.7492C136.429 49.2258 132.503 60.0276 126.167 70.4011C119.943 80.5913 111.432 90.3048 102.174 97.8558C92.9147 90.3048 84.4041 80.5913 78.1803 70.4011C71.8445 60.0276 67.918 49.2258 67.918 39.7492C67.918 20.8304 83.2547 5.49365 102.174 5.49365C121.092 5.49365 136.429 20.8304 136.429 39.7492Z" fill="white" stroke="#0B6AB7" stroke-width="1.5" class="svg__stroke--primary-blue-03"/>
<ellipse cx="102.173" cy="40.4207" rx="13.9526" ry="13.9526" fill="#0AA5FF" class="svg__fill--default-cyan-03"/>
<path d="M140.148 93.934L153.24 87.6606M146.966 137.029L168.787 148.757M56.1393 137.029L29.1367 150.94M60.5034 93.934L47.1385 87.6606M156.24 116.3H163.059M47.1385 116.3H36.7738" stroke="#FFD600" stroke-width="1.5" class="svg__stroke--secondary-yellow-03"/>
</svg>

<svg width="200" height="160" viewBox="0 0 200 160" fill="none" xmlns="http://www.w3.org/2000/svg" class="svg__illustration-find-space">
  <path d="M157.995 81.626H44.021a2 2 0 0 0-1.898 1.368l-23.02 69.117A2 2 0 0 0 21 154.743h158.174a2 2 0 0 0 1.912-2.585L159.907 83.04a2 2 0 0 0-1.912-1.414Z" stroke="#0B6AB7" stroke-width="1.5" class="svg__stroke--primary-blue-03"/>
  <path d="m101.209 87.288 36.499 8.563 15.118 20.672-15.118 20.672-36.499 8.563-36.498-8.563-15.118-20.672L64.71 95.851l36.498-8.563Z" stroke="#0B6AB7" stroke-width="1.5" class="svg__stroke--primary-blue-03"/>
  <path d="m101.209 90.608 32.355 7.59 13.402 18.326-13.402 18.325-32.355 7.59-32.355-7.59-13.401-18.325 13.401-18.326 32.355-7.59Z" stroke="#00E0E0" stroke-width="1.5" class="svg__stroke--help-green-03"/>
  <path d="M136.43 39.75c0 9.476-3.927 20.278-10.263 30.651-6.224 10.19-14.734 19.904-23.993 27.455-9.259-7.551-17.77-17.265-23.993-27.455-6.336-10.373-10.263-21.175-10.263-30.652 0-18.919 15.337-34.255 34.256-34.255S136.43 20.83 136.43 39.749Z" fill="#fff" stroke="#0B6AB7" stroke-width="1.5" class="svg__fill--white svg__stroke--primary-blue-03"/>
  <circle cx="102.174" cy="40.421" fill="#0AA5FF" r="13.953" class="svg__fill--default-cyan-03"/>
  <path d="m140.147 93.934 13.092-6.273m-6.273 49.368 21.82 11.728M56.139 137.029 29.136 150.94m31.367-57.006-13.365-6.273M156.239 116.3h6.819m-115.92 0H36.773" stroke="#FFD600" stroke-width="1.5" class="svg__stroke--secondary-yellow-03"/>
</svg>
